X:1
T:Title
%%score { 1 | 2 }
L:1/8
M:4/4
K:D
V:1 treble nm="Grand Piano"
V:2 bass 
V:1
 z4 z2[Q:1/4=92] D2 | D>[CE] [DF]>[EG] [FA][FA] z F | G>F G>B [FA]2 [Fd]2 | %3
 [^Gd]>[Gc] [Gd]>[Ge] cA z A | [^GB]>[Gd] [Gc]>[DGB] [CA]2 [DFA]2 | %5
 [DFA][A,EG][A,DF][DEG] [DFA][DFA] z [DFA] |[M:9/8] [DGB][DFA][DG] [DFA] [DGB]2- [DGB] [Gc]2 | %7
[M:4/4] [Fd]>[Fd] [Gd]>[Gd] [Fd]>A FD |[M:3/4] F[FA] [CG]>[K:bass][G,CE] [F,D]2 | %9
[M:1/4][K:treble] [DFA]2 |[M:4/4] [DFA][A,EG][A,DF][DEG] [DFA]2 [DFA]2 | %11
[M:9/8] [DGB][DFA][DG] [DFA] [DGB]2- [DGB] [Gc]2 |[M:4/4] [Fd]>[Fd] [Gd]>[Gd] [Fd]>A FD | %13
[M:3/4] [A,DF][DA] [CG]>[CE] D2 |] %14
V:2
 z4 z2 [D,F,]2 | [D,F,]>[A,,A,] [D,A,]>[D,A,] [D,D][D,D] z [D,D] | %2
 [G,B,D]>[D,A,D][K:treble] [G,B,D]>[G,DG][K:bass] [D,D]2 [D,D]2 | %3
 [E,B,]>[E,B,] [E,B,]>[E,B,][K:treble] [A,CA][A,C] z[K:bass] [A,C] | [E,E]>[E,E] [E,E]>E, A,2 D,2 | %5
 D,D,D,D, D,D, z D, |[M:9/8] G,D,B,, D, G,2- G, A,2 | %7
[M:4/4] [D,A,]>[D,A,] [G,B,]>[G,B,] [D,A,]>A, F,D, |[M:3/4] [A,,A,][A,,F,] [A,,E,]>A,, D,2 | %9
[M:1/4] D,2 |[M:4/4] D,D,D,D, D,2 D,2 |[M:9/8] G,D,B,, D, G,2- G, A,2 | %12
[M:4/4] [D,A,]>[D,A,] [G,B,]>[G,B,] [D,A,]>A, F,D, |[M:3/4] A,,[A,,F,] [A,,E,]>[A,,G,] [D,F,]2 |] %14

